static/gear.svg

<?xml version="1.0" ?><svg enable-background="new 0 0 32 32" id="Glyph" version="1.1" viewBox="0 0 32 32" xml:space="preserve" xmlns="http://www.w3.org/2000/svg" xmlns:xlink="http://www.w3.org/1999/xlink"><path d="M27.526,18.036L27,17.732c-0.626-0.361-1-1.009-1-1.732s0.374-1.371,1-1.732l0.526-0.304  c1.436-0.83,1.927-2.662,1.098-4.098l-1-1.732c-0.827-1.433-2.666-1.925-4.098-1.098L23,7.339c-0.626,0.362-1.375,0.362-2,0  c-0.626-0.362-1-1.009-1-1.732V5c0-1.654-1.346-3-3-3h-2c-1.654,0-3,1.346-3,3v0.608c0,0.723-0.374,1.37-1,1.732  c-0.626,0.361-1.374,0.362-2,0L8.474,7.036C7.042,6.209,5.203,6.701,4.375,8.134l-1,1.732c-0.829,1.436-0.338,3.269,1.098,4.098  L5,14.268C5.626,14.629,6,15.277,6,16s-0.374,1.371-1,1.732l-0.526,0.304c-1.436,0.829-1.927,2.662-1.098,4.098l1,1.732  c0.828,1.433,2.667,1.925,4.098,1.098L9,24.661c0.626-0.363,1.374-0.361,2,0c0.626,0.362,1,1.009,1,1.732V27c0,1.654,1.346,3,3,3h2  c1.654,0,3-1.346,3-3v-0.608c0-0.723,0.374-1.37,1-1.732c0.625-0.361,1.374-0.362,2,0l0.526,0.304  c1.432,0.826,3.271,0.334,4.098-1.098l1-1.732C29.453,20.698,28.962,18.865,27.526,18.036z M16,21c-2.757,0-5-2.243-5-5s2.243-5,5-5  s5,2.243,5,5S18.757,21,16,21z" id="XMLID_273_"/></svg>

<?xml version="1.0" standalone="no"?>
<!DOCTYPE svg PUBLIC "-//W3C//DTD SVG 1.0//EN" "http://www.w3.org/TR/2001/REC-SVG-20010904/DTD/svg10.dtd">
<svg xmlns="http://www.w3.org/2000/svg" xmlns:xlink="http://www.w3.org/1999/xlink" id="body_1" width="100" height="75">

<g transform="matrix(0.09765625 0 0 0.09765625 0 0)">
	<g transform="matrix(24 0 0 24 128 0)">
	</g>
    <path transform="matrix(24 0 0 24 128 0)"  d="M27.526 18.036L27 17.732C 26.374 17.371 26 16.723 26 16C 26 15.277 26.374 14.629 27 14.268L27 14.268L27.526 13.964C 28.962 13.134 29.453 11.302 28.624 9.865999L28.624 9.865999L27.624 8.133999C 26.797 6.700999 24.958 6.208999 23.526 7.035999L23.526 7.035999L23 7.339C 22.374 7.701 21.625 7.701 21 7.339C 20.374 6.977 20 6.33 20 5.607L20 5.607L20 5C 20 3.346 18.654 2 17 2L17 2L15 2C 13.346 2 12 3.346 12 5L12 5L12 5.608C 12 6.331 11.626 6.978 11 7.34C 10.374 7.701 9.626 7.702 9 7.34L9 7.34L8.474 7.036C 7.042 6.209 5.203 6.701 4.375 8.134L4.375 8.134L3.375 9.866C 2.546 11.302 3.037 13.135 4.473 13.964L4.473 13.964L5 14.268C 5.626 14.629 6 15.277 6 16C 6 16.723 5.626 17.371 5 17.732L5 17.732L4.474 18.036C 3.038 18.865 2.547 20.698 3.376 22.134L3.376 22.134L4.376 23.866C 5.204 25.299 7.043 25.791 8.474 24.964L8.474 24.964L9 24.661C 9.626 24.298 10.374 24.3 11 24.661C 11.626 25.023 12 25.67 12 26.393L12 26.393L12 27C 12 28.654 13.346 30 15 30L15 30L17 30C 18.654 30 20 28.654 20 27L20 27L20 26.392C 20 25.669 20.374 25.022 21 24.66C 21.625 24.299 22.374 24.298 23 24.66L23 24.66L23.526 24.964C 24.958 25.79 26.797 25.298 27.624 23.866L27.624 23.866L28.624 22.134C 29.453 20.698 28.962 18.865 27.526 18.036zM16 21C 13.243 21 11 18.757 11 16C 11 13.243 13.243 11 16 11C 18.757 11 21 13.243 21 16C 21 18.757 18.757 21 16 21z" stroke="none" fill="#000000" fill-rule="nonzero" />
</g>
</svg>
